Newaita-dark/apps/48/fluid-demo.svg

<svg height="48" viewBox="0 0 48 48" width="48" xmlns="http://www.w3.org/2000/svg" xmlns:xlink="http://www.w3.org/1999/xlink"><linearGradient id="a"><stop offset="0" stop-opacity=".313726"/><stop offset=".222222" stop-opacity=".27451"/><stop offset="1" stop-opacity="0"/></linearGradient><radialGradient id="b" cx="450.908936" cy="189.579361" gradientTransform="matrix(.00000026 -.117199 -.210958 -.00000015 66.784728 95.392994)" gradientUnits="userSpaceOnUse" r="21.166656" xlink:href="#a"/><radialGradient id="c" cx="450.908936" cy="189.579361" gradientTransform="matrix(-.00000026 .117199 .210958 .00000015 -19.155178 -11.291223)" gradientUnits="userSpaceOnUse" r="21.166656" xlink:href="#a"/><radialGradient id="d" cx="450.908936" cy="189.579361" gradientTransform="matrix(-.00000026 -.117199 .210958 -.00000015 -19.155178 95.392994)" gradientUnits="userSpaceOnUse" r="21.166656" xlink:href="#a"/><radialGradient id="e" cx="450.908936" cy="189.579361" gradientTransform="matrix(.00000026 .117199 -.210958 .00000015 66.784725 -11.291224)" gradientUnits="userSpaceOnUse" r="21.166656" xlink:href="#a"/><linearGradient id="f" gradientTransform="matrix(.0200401 0 0 .093759 18.698079 20.158175)" gradientUnits="userSpaceOnUse" x1="255.323059" x2="255.323044" y1="233.5" y2="254.666656"><stop offset="0" stop-opacity=".27451"/><stop offset="1" stop-opacity="0"/></linearGradient><linearGradient id="g" gradientUnits="userSpaceOnUse" x1="232.833328" x2="232.833328" y1="233.5" y2="-168.666656"><stop offset="0" stop-color="#ef5350"/><stop offset="1" stop-color="#e57373"/></linearGradient><linearGradient id="h" gradientUnits="userSpaceOnUse" x1="3.99168881046" x2="3.99168881046" y1="2.17148197423" y2=".39026444604"><stop offset="0" stop-color="#e0e0e0"/><stop offset="1" stop-color="#eee"/></linearGradient><path d="m27.289062 42.050781h3.96875v-1.984375h-3.96875zm0 0" fill="url(#b)"/><path d="m20.339844 42.050781h-3.96875v1.984375h3.96875zm0 0" fill="url(#c)"/><path d="m20.339844 42.050781h-3.96875v-1.984375h3.96875zm0 0" fill="url(#d)"/><path d="m27.289062 42.050781h3.96875v1.984375h-3.96875zm0 0" fill="url(#e)"/><path d="m20.339844 41.554688h6.949218v2.480468h-6.949218zm0 0" fill="url(#f)"/><path d="m254.017409-168.671091c111.031064 0 201.064133 90.033069 201.064133 201.105795 0 111.031064-90.033069 201.064133-201.064133 201.064133-111.072726 0-201.105795-90.033069-201.105795-201.064133 0-111.072726 90.033069-201.105795 201.105795-201.105795zm0 0" fill="url(#g)" stroke="#333" stroke-linecap="round" stroke-width="3" transform="matrix(.093759 0 0 .093759 0 20.158175)"/><path d="m23.816406 42.050781c-10.445312 0-18.855468-8.410156-18.855468-18.851562 0-.0625 0-.125 0-.1875.101562 10.359375 8.472656 18.667969 18.855468 18.667969 10.382813 0 18.753906-8.308594 18.851563-18.667969v.1875c0 10.441406-8.410157 18.851562-18.851563 18.851562zm0 0" fill-opacity=".196078"/><path d="m23.816406 4.34375c-10.445312 0-18.855468 8.410156-18.855468 18.855469v.183593c.101562-10.359374 8.472656-18.667968 18.855468-18.667968 10.382813 0 18.753906 8.308594 18.851563 18.667968 0-.0625 0-.125 0-.183593 0-10.445313-8.410157-18.855469-18.851563-18.855469zm0 0" fill="#fff" fill-opacity=".392157"/><path d="m23.816406 4.203125c-10.523437 0-18.996094 8.472656-18.996094 18.996094 0 10.519531 8.472657 18.992187 18.996094 18.992187 10.519532 0 18.992188-8.472656 18.992188-18.992187 0-10.523438-8.472656-18.996094-18.992188-18.996094zm0 .28125c10.367188 0 18.710938 8.34375 18.710938 18.714844 0 10.367187-8.34375 18.710937-18.710938 18.710937-10.371094 0-18.714844-8.34375-18.714844-18.710937 0-10.371094 8.34375-18.714844 18.714844-18.714844zm0 0" fill="#212121"/><path d="m15.019531 14.589844 4 6.363281-6.957031-1.597656 9.410156 7.902343-.394531.421876-.203125.214843s.152344.414063.332031.910157l-5.753906 2.828124h6.78125l2.433594-1.691406 5.730469-3.976562 2.601562-1.804688-.355469-5.3125v-.335937l2.875.335937-2.875-3.09375-3.714843.5625-.664063.101563-1.199219 2.9375-.714844 1.265625zm0 0" fill="url(#h)"/><path d="m15.019531 14.589844.703125 1.117187 10.628906 5.660157.714844-1.269532 1.199219-2.9375.664063-.097656 3.714843-.5625 2.101563 2.257812.773437.089844-2.875-3.09375-3.714843.5625-.664063.101563-1.199219 2.9375-.714844 1.265625zm17.625 4.667968v.335938l.304688 4.601562.050781-.035156-.328125-4.898437zm-20.582031.097657 1.21875 1.023437 5.738281 1.316406-.546875-.871093zm9.019531 8.320312-.003906.003907-.203125.214843s.117188.316407.195312.535157l.007813-.007813.394531-.417969zm-.105469 1.242188-5.523437 2.714843h1.515625l4.238281-2.082031c-.125-.34375-.175781-.476562-.230469-.632812zm0 0" fill="#fff" fill-opacity=".970968"/><path d="m15.019531 15.332031 3.453125 5.492188.546875.128906-3.296875-5.246094zm17.625 3.179688v.335937l.027344.414063 2.847656.332031-.773437-.835938zm-20.582031 1.585937 9.019531 7.578125.390625-.417969-8.191406-6.878906zm20.886719 4.097656-2.550781 1.769532-5.730469 3.976562-2.433594 1.691406h-5.265625l-1.515625.742188h6.78125l2.433594-1.6875 5.730469-3.980469 2.601562-1.800781zm-11.878907 4.238282-.195312.207031s.078125.210937.101562.277344l.230469-.113281c-.074219-.203126-.082031-.21875-.136719-.371094zm0 0" fill-opacity=".235294"/><path d="m605.453804 588.132834 161.244436 256.510924-280.445645-64.403295 379.333835 318.55224-15.903993 17.006249-8.188194 8.66059s6.141146 16.691319 13.384548 36.689408l-231.946342 114.004855h273.359708l98.100863-68.182462 231.00155-160.299644 104.87187-72.748955-14.32934-214.152766v-13.542013l115.894439 13.542013-115.894439-124.712494-149.749471 22.674999-26.769096 4.094097-48.341837 118.413883-28.816145 51.018747zm0 0" fill="none" stroke="#212121" stroke-width="11.338582" transform="matrix(.0248071 0 0 .0248071 .000004 -.000001)"/></svg>

<?xml version="1.0" encoding="UTF-8"?>
<svg xmlns="http://www.w3.org/2000/svg" xmlns:xlink="http://www.w3.org/1999/xlink" width="48px" height="48px" viewBox="0 0 48 48" version="1.1">
<defs>
<radialGradient id="radial0" gradientUnits="userSpaceOnUse" cx="450.908936" cy="189.579361" fx="450.908936" fy="189.579361" r="21.166656" gradientTransform="matrix(0.000000261256,-0.117199,-0.210958,-0.000000152308,66.784728,95.392994)">
<stop offset="0" style="stop-color:rgb(0%,0%,0%);stop-opacity:0.313726;"/>
<stop offset="0.222222" style="stop-color:rgb(0%,0%,0%);stop-opacity:0.27451;"/>
<stop offset="1" style="stop-color:rgb(0%,0%,0%);stop-opacity:0;"/>
</radialGradient>
<radialGradient id="radial1" gradientUnits="userSpaceOnUse" cx="450.908936" cy="189.579361" fx="450.908936" fy="189.579361" r="21.166656" gradientTransform="matrix(-0.000000261256,0.117199,0.210958,0.000000152308,-19.155178,-11.291223)">
<stop offset="0" style="stop-color:rgb(0%,0%,0%);stop-opacity:0.313726;"/>
<stop offset="0.222222" style="stop-color:rgb(0%,0%,0%);stop-opacity:0.27451;"/>
<stop offset="1" style="stop-color:rgb(0%,0%,0%);stop-opacity:0;"/>
</radialGradient>
<radialGradient id="radial2" gradientUnits="userSpaceOnUse" cx="450.908936" cy="189.579361" fx="450.908936" fy="189.579361" r="21.166656" gradientTransform="matrix(-0.000000261256,-0.117199,0.210958,-0.000000152308,-19.155178,95.392994)">
<stop offset="0" style="stop-color:rgb(0%,0%,0%);stop-opacity:0.313726;"/>
<stop offset="0.222222" style="stop-color:rgb(0%,0%,0%);stop-opacity:0.27451;"/>
<stop offset="1" style="stop-color:rgb(0%,0%,0%);stop-opacity:0;"/>
</radialGradient>
<radialGradient id="radial3" gradientUnits="userSpaceOnUse" cx="450.908936" cy="189.579361" fx="450.908936" fy="189.579361" r="21.166656" gradientTransform="matrix(0.000000261256,0.117199,-0.210958,0.000000152308,66.784725,-11.291224)">
<stop offset="0" style="stop-color:rgb(0%,0%,0%);stop-opacity:0.313726;"/>
<stop offset="0.222222" style="stop-color:rgb(0%,0%,0%);stop-opacity:0.27451;"/>
<stop offset="1" style="stop-color:rgb(0%,0%,0%);stop-opacity:0;"/>
</radialGradient>
<linearGradient id="linear0" gradientUnits="userSpaceOnUse" x1="255.323059" y1="233.5" x2="255.323044" y2="254.666656" gradientTransform="matrix(0.0200401,0,0,0.093759,18.698079,20.158175)">
<stop offset="0" style="stop-color:rgb(0%,0%,0%);stop-opacity:0.27451;"/>
<stop offset="1" style="stop-color:rgb(0%,0%,0%);stop-opacity:0;"/>
</linearGradient>
<linearGradient id="linear1" gradientUnits="userSpaceOnUse" x1="232.833328" y1="233.5" x2="232.833328" y2="-168.666656" gradientTransform="matrix(1,0,0,1,0,0)">
<stop offset="0" style="stop-color:rgb(93.725491%,32.549021%,31.37255%);stop-opacity:1;"/>
<stop offset="1" style="stop-color:rgb(89.803922%,45.09804%,45.09804%);stop-opacity:1;"/>
</linearGradient>
<linearGradient id="linear2" gradientUnits="userSpaceOnUse" x1="160.908966" y1="87.534737" x2="160.908966" y2="15.732006" gradientTransform="matrix(0.0248071,0,0,0.0248071,0.0000039005,-0.0000012916)">
<stop offset="0" style="stop-color:rgb(87.843138%,87.843138%,87.843138%);stop-opacity:1;"/>
<stop offset="1" style="stop-color:rgb(93.333334%,93.333334%,93.333334%);stop-opacity:1;"/>
</linearGradient>
</defs>
<g id="surface1">
<path style=" stroke:none;fill-rule:nonzero;fill:url(#radial0);" d="M 27.289062 42.050781 L 31.257812 42.050781 L 31.257812 40.066406 L 27.289062 40.066406 Z M 27.289062 42.050781 "/>
<path style=" stroke:none;fill-rule:nonzero;fill:url(#radial1);" d="M 20.339844 42.050781 L 16.371094 42.050781 L 16.371094 44.035156 L 20.339844 44.035156 Z M 20.339844 42.050781 "/>
<path style=" stroke:none;fill-rule:nonzero;fill:url(#radial2);" d="M 20.339844 42.050781 L 16.371094 42.050781 L 16.371094 40.066406 L 20.339844 40.066406 Z M 20.339844 42.050781 "/>
<path style=" stroke:none;fill-rule:nonzero;fill:url(#radial3);" d="M 27.289062 42.050781 L 31.257812 42.050781 L 31.257812 44.035156 L 27.289062 44.035156 Z M 27.289062 42.050781 "/>
<path style=" stroke:none;fill-rule:nonzero;fill:url(#linear0);" d="M 20.339844 41.554688 L 27.289062 41.554688 L 27.289062 44.035156 L 20.339844 44.035156 Z M 20.339844 41.554688 "/>
<path style="fill-rule:nonzero;fill:url(#linear1);stroke-width:3;stroke-linecap:round;stroke-linejoin:miter;stroke:rgb(20%,20%,20%);stroke-opacity:1;stroke-miterlimit:4;" d="M 254.017409 -168.671091 C 365.048473 -168.671091 455.081542 -78.638022 455.081542 32.434704 C 455.081542 143.465768 365.048473 233.498837 254.017409 233.498837 C 142.944683 233.498837 52.911614 143.465768 52.911614 32.434704 C 52.911614 -78.638022 142.944683 -168.671091 254.017409 -168.671091 Z M 254.017409 -168.671091 " transform="matrix(0.093759,0,0,0.093759,0,20.158175)"/>
<path style=" stroke:none;fill-rule:nonzero;fill:rgb(0%,0%,0%);fill-opacity:0.196078;" d="M 23.816406 42.050781 C 13.371094 42.050781 4.960938 33.640625 4.960938 23.199219 C 4.960938 23.136719 4.960938 23.074219 4.960938 23.011719 C 5.0625 33.371094 13.433594 41.679688 23.816406 41.679688 C 34.199219 41.679688 42.570312 33.371094 42.667969 23.011719 C 42.667969 23.074219 42.667969 23.136719 42.667969 23.199219 C 42.667969 33.640625 34.257812 42.050781 23.816406 42.050781 Z M 23.816406 42.050781 "/>
<path style=" stroke:none;fill-rule:nonzero;fill:rgb(100%,100%,100%);fill-opacity:0.392157;" d="M 23.816406 4.34375 C 13.371094 4.34375 4.960938 12.753906 4.960938 23.199219 C 4.960938 23.257812 4.960938 23.320312 4.960938 23.382812 C 5.0625 13.023438 13.433594 4.714844 23.816406 4.714844 C 34.199219 4.714844 42.570312 13.023438 42.667969 23.382812 C 42.667969 23.320312 42.667969 23.257812 42.667969 23.199219 C 42.667969 12.753906 34.257812 4.34375 23.816406 4.34375 Z M 23.816406 4.34375 "/>
<path style=" stroke:none;fill-rule:nonzero;fill:rgb(12.941177%,12.941177%,12.941177%);fill-opacity:1;" d="M 23.816406 4.203125 C 13.292969 4.203125 4.820312 12.675781 4.820312 23.199219 C 4.820312 33.71875 13.292969 42.191406 23.816406 42.191406 C 34.335938 42.191406 42.808594 33.71875 42.808594 23.199219 C 42.808594 12.675781 34.335938 4.203125 23.816406 4.203125 Z M 23.816406 4.484375 C 34.183594 4.484375 42.527344 12.828125 42.527344 23.199219 C 42.527344 33.566406 34.183594 41.910156 23.816406 41.910156 C 13.445312 41.910156 5.101562 33.566406 5.101562 23.199219 C 5.101562 12.828125 13.445312 4.484375 23.816406 4.484375 Z M 23.816406 4.484375 "/>
<path style=" stroke:none;fill-rule:nonzero;fill:url(#linear2);" d="M 15.019531 14.589844 L 19.019531 20.953125 L 12.0625 19.355469 L 21.472656 27.257812 L 21.078125 27.679688 L 20.875 27.894531 C 20.875 27.894531 21.027344 28.308594 21.207031 28.804688 L 15.453125 31.632812 L 22.234375 31.632812 L 24.667969 29.941406 L 30.398438 25.964844 L 33 24.160156 L 32.644531 18.847656 L 32.644531 18.511719 L 35.519531 18.847656 L 32.644531 15.753906 L 28.929688 16.316406 L 28.265625 16.417969 L 27.066406 19.355469 L 26.351562 20.621094 Z M 15.019531 14.589844 "/>
<path style=" stroke:none;fill-rule:nonzero;fill:rgb(100%,100%,100%);fill-opacity:0.970968;" d="M 15.019531 14.589844 L 15.722656 15.707031 L 26.351562 21.367188 L 27.066406 20.097656 L 28.265625 17.160156 L 28.929688 17.0625 L 32.644531 16.5 L 34.746094 18.757812 L 35.519531 18.847656 L 32.644531 15.753906 L 28.929688 16.316406 L 28.265625 16.417969 L 27.066406 19.355469 L 26.351562 20.621094 Z M 32.644531 19.257812 L 32.644531 19.59375 L 32.949219 24.195312 L 33 24.160156 L 32.671875 19.261719 Z M 12.0625 19.355469 L 13.28125 20.378906 L 19.019531 21.695312 L 18.472656 20.824219 Z M 21.082031 27.675781 L 21.078125 27.679688 L 20.875 27.894531 C 20.875 27.894531 20.992188 28.210938 21.070312 28.429688 L 21.078125 28.421875 L 21.472656 28.003906 Z M 20.976562 28.917969 L 15.453125 31.632812 L 16.96875 31.632812 L 21.207031 29.550781 C 21.082031 29.207031 21.03125 29.074219 20.976562 28.917969 Z M 20.976562 28.917969 "/>
<path style=" stroke:none;fill-rule:nonzero;fill:rgb(0%,0%,0%);fill-opacity:0.235294;" d="M 15.019531 15.332031 L 18.472656 20.824219 L 19.019531 20.953125 L 15.722656 15.707031 Z M 32.644531 18.511719 L 32.644531 18.847656 L 32.671875 19.261719 L 35.519531 19.59375 L 34.746094 18.757812 Z M 12.0625 20.097656 L 21.082031 27.675781 L 21.472656 27.257812 L 13.28125 20.378906 Z M 32.949219 24.195312 L 30.398438 25.964844 L 24.667969 29.941406 L 22.234375 31.632812 L 16.96875 31.632812 L 15.453125 32.375 L 22.234375 32.375 L 24.667969 30.6875 L 30.398438 26.707031 L 33 24.90625 Z M 21.070312 28.433594 L 20.875 28.640625 C 20.875 28.640625 20.953125 28.851562 20.976562 28.917969 L 21.207031 28.804688 C 21.132812 28.601562 21.125 28.585938 21.070312 28.433594 Z M 21.070312 28.433594 "/>
<path style="fill:none;stroke-width:11.338582;stroke-linecap:butt;stroke-linejoin:miter;stroke:rgb(12.941177%,12.941177%,12.941177%);stroke-opacity:1;stroke-miterlimit:4;" d="M 605.453804 588.132834 L 766.69824 844.643758 L 486.252595 780.240463 L 865.58643 1098.792703 L 849.682437 1115.798952 L 841.494243 1124.459542 C 841.494243 1124.459542 847.635389 1141.150861 854.878791 1161.14895 L 622.932449 1275.153805 L 896.292157 1275.153805 L 994.39302 1206.971343 L 1225.39457 1046.671699 L 1330.26644 973.922744 L 1315.9371 759.769978 L 1315.9371 746.227965 L 1431.831539 759.769978 L 1315.9371 635.057484 L 1166.187629 657.732483 L 1139.418533 661.82658 L 1091.076696 780.240463 L 1062.260551 831.25921 Z M 605.453804 588.132834 " transform="matrix(0.0248071,0,0,0.0248071,0.0000039005,-0.0000012916)"/>
</g>
</svg>
